src/assets/icons/phone-outgoing.svg

<svg width="63" height="63" viewBox="0 0 63 63" fill="none" xmlns="http://www.w3.org/2000/svg">
<path d="M18.9 17.325C18.4822 17.325 18.0816 17.4909 17.7863 17.7863C17.4909 18.0817 17.325 18.4823 17.325 18.9C17.325 26.0012 20.1459 32.8115 25.1672 37.8328C30.1885 42.8541 36.9988 45.675 44.1 45.675C44.5177 45.675 44.9183 45.5091 45.2136 45.2137C45.509 44.9183 45.6749 44.5177 45.6749 44.1V38.5875C45.6749 38.1698 45.509 37.7692 45.2136 37.4738C44.9183 37.1784 44.5177 37.0125 44.1 37.0125C42.1312 37.0125 40.2412 36.6975 38.4772 36.1148C37.926 35.9415 37.3117 36.0675 36.8707 36.4928L33.4057 39.9578C28.9485 37.6898 25.2945 34.0515 23.0265 29.5785L26.4915 26.0978C26.9325 25.6883 27.0585 25.074 26.8852 24.5228C26.3025 22.7588 25.9875 20.8688 25.9875 18.9C25.9875 18.4823 25.8215 18.0817 25.5261 17.7863C25.2308 17.4909 24.8302 17.325 24.4125 17.325H18.9ZM36.225 17.325V19.6875H41.7374L33.075 28.35L34.65 29.925L43.3125 21.2625V26.775H45.6749V17.325H36.225Z" fill="#011136"/>
</svg>

<svg width="63" height="63" fill="none" xmlns="http://www.w3.org/2000/svg"><path d="M18.9 17.325a1.575 1.575 0 0 0-1.575 1.575A26.775 26.775 0 0 0 44.1 45.675a1.575 1.575 0 0 0 1.575-1.575v-5.513a1.575 1.575 0 0 0-1.575-1.575c-1.969 0-3.859-.315-5.623-.897a1.607 1.607 0 0 0-1.606.378l-3.465 3.465a23.697 23.697 0 0 1-10.38-10.38l3.465-3.48c.442-.41.567-1.024.394-1.575a17.894 17.894 0 0 1-.898-5.623 1.575 1.575 0 0 0-1.574-1.575H18.9zm17.325 0v2.363h5.512l-8.662 8.662 1.575 1.575 8.663-8.663v5.513h2.362v-9.45h-9.45z" fill="#011136"/></svg>
